X: 16378
T: Gusty's Frolics
R: slip jig
M: 9/8
K: Dmajor
|:A,DD DCD FF/F/F|A,DD DFA GEC|A,DD A,DD FF/F/F|GG/G/G EF/F/F GFE:|
FED AB^G A2 G|FF/F/F ABc dAG|FED AB^G AF/F/F|GG/G/G EF/F/F GFE|
FED AB^G A=G/G/G|FF/F/F ABc dAG|FED dd/d/d AFD|GG/G/G EF/F/F GFE|
|:Add ded ff/f/f|Add dfa gec|Add ded ff/f/f|gg/g/g ecA gfe:|
|:dfd cec d2B|AFD DFD AF^G|AA/A/A BB/B/B =cBA|GG/G/G E=CE GFE:|

